src/assets/icons/fullscreen-exit.svg

<svg widh="100%" height="100%" viewBox="0 0 24 24" fill="current"
  xmlns="http://www.w3.org/2000/svg">
  <path d="M15.984 8.01599H18.984V9.98499H14.015V5.01599H15.984V8.01599V8.01599ZM14.016 18.984V14.015H18.985V15.984H15.985V18.984H14.016ZM8.016 8.01599V5.01599H9.985V9.98499H5.016V8.01599H8.016V8.01599ZM5.016 15.984V14.015H9.985V18.984H8.016V15.984H5.016V15.984Z"/>
</svg>

<svg xmlns="http://www.w3.org/2000/svg" fill="currentColor" viewBox="0 0 24 24">
  <path d="M15.984 8.016h3v1.969h-4.969V5.016h1.969v3Zm-1.968 10.968v-4.969h4.969v1.969h-3v3h-1.969Zm-6-10.968v-3h1.969v4.969H5.016V8.016h3Zm-3 7.968v-1.969h4.969v4.969H8.016v-3h-3Z"/>
</svg>
